svg/fluentui-system-icons/ic_fluent_keyboard_shift_24_filled.svg

<svg width="24" height="24" viewBox="0 0 24 24" fill="none" xmlns="http://www.w3.org/2000/svg">
<path d="M10.6774 2.60317C11.3752 1.79894 12.6234 1.79894 13.3211 2.60317L21.5666 12.107C22.5496 13.24 21.7448 15.0038 20.2447 15.0038H16.9999V20.2508C16.9999 21.2173 16.2164 22.0008 15.2499 22.0008H8.74989C7.78339 22.0008 6.99989 21.2173 6.99989 20.2508V15.0038H3.75388C2.25383 15.0038 1.449 13.24 2.43203 12.107L10.6774 2.60317Z" fill="#212121"/>
</svg>

<svg xmlns="http://www.w3.org/2000/svg" width="24" height="24"><path d="M10.677 2.603a1.75 1.75 0 0 1 2.644 0l8.246 9.504c.983 1.133.178 2.897-1.322 2.897H17v5.247A1.75 1.75 0 0 1 15.25 22h-6.5A1.75 1.75 0 0 1 7 20.25v-5.247H3.754c-1.5 0-2.305-1.764-1.322-2.897l8.245-9.504Z"/></svg>
